icons/out/40/mobileDevice.svg

<svg xmlns="http://www.w3.org/2000/svg" viewBox="0 0 40 40"><path d="M26.07 6a1.46 1.46 0 011.46 1.5v24.84a1.46 1.46 0 01-1.46 1.47H13.93a1.46 1.46 0 01-1.46-1.47V7.5A1.46 1.46 0 0113.93 6h12.14m0-2H13.93a3.46 3.46 0 00-3.46 3.5v24.84a3.46 3.46 0 003.46 3.47h12.14a3.46 3.46 0 003.46-3.47V7.5A3.46 3.46 0 0026.07 4zm-.2 25.09a1 1 0 00-1-1h-9.74a1 1 0 100 2h9.74a1 1 0 001-.96z"/></svg>

<svg id="Ebene_1" xmlns="http://www.w3.org/2000/svg" viewBox="0 0 40 40"><defs><style>.cls-1{fill:#010101;}</style></defs><path class="cls-1" d="M26.07,6A1.46,1.46,0,0,1,27.53,7.5V32.34a1.46,1.46,0,0,1-1.46,1.47H13.93a1.46,1.46,0,0,1-1.46-1.47V7.5A1.46,1.46,0,0,1,13.93,6H26.07m0-2H13.93A3.46,3.46,0,0,0,10.47,7.5V32.34a3.46,3.46,0,0,0,3.46,3.47H26.07a3.46,3.46,0,0,0,3.46-3.47V7.5A3.46,3.46,0,0,0,26.07,4Zm-.2,25.09a1,1,0,0,0-1-1H15.13a1,1,0,1,0,0,2h9.74A1,1,0,0,0,25.87,29.13Z"/></svg>
